X: 1815
T: Sînede Yârem Onulmaz
C: Hamparsum
O: Turkey
F: http://compmusic.upf.edu/node/140
N: ferahnak--sarki--duyek--sinede_yarem--hamparsum
N: makam= ferahnak
N: form= sarki
N: usul= duyek = 8/4
M: 8/4
L: 1/16
K: C ^f ^c  
Q: 1/4=108
%%MIDI tuningsystem comma53
z4 d8 a2 g2  | g2 f4 e2 ef ed d4  | d4 f2 e2 d2 e2 f2 g2  | \
w:  Sî ne  |  *  de  *  yâ  |  rem  *  *  o  | 
f2 e2 d2 e2 f2 g2 f2 e2  | 
w:  nul *  *  *  maz    | 
f3e d8 a2 g2  | g2 f4 e2 ef ed d4  | \
w:  *  *  Sî ne  |  *  de  *  yâ  | 
d4 ag ab a2 g4 f2  | 
w:  *  rem  *  *  *  *  *  o  | 
f2 e2 f2 e2 e8  | z4 d8 e4  | e2 d2 c2 d2 d2 e2 d2 c2  | \
w:  nul *  *  *  maz    |  Aş ka   |  dü *  *  *  şen   | 
c2 B2 B4 B2 A2 A4  | 
w:  *  *  if *  *  lâh   | 
A6 e2 e2 d2 =c2 B2  | =c2 BA A8 G4  | \
w:  ol *  maz    |  *  *  *  Aş ka   | 
B2 A4 B2 A2 G2 F2 A2  | G2 F2 =c4 B2 A2 A2 G2  | 
w:  dü *  *  şen   |  *  *  if *  *  lâh   | 
GF GA G2 F2 F4 z4  | z4 d8 d4  | d6 e2 e2 d2 cd cB  | \
w:  ol *  *  *  *  *  maz    |  Bu  der  |  de  *  ça  | 
A4 d8 e4  | 
w:  re  *  bu  | 
f2 e2 d2 e2 f2 g2 f2 e2  | f3e d8 a2 g2  | \
w:  lun *  *  *  maz    |  *  *  Bu  der  | 
g2 f4 e2 ef ed d4  | 
w:  *  de  *  ça  | 
d4 ag ab a2 g2 g2 f2  | f2 e2 f2 e2 e8  | \
w:  *  re  *  *  *  bu  |  lun *  *  *  maz    | 
z4 d8 e4  | e2 d2 c2 d2 d2 e2 d2 c2  | 
w:  Aş ka   |  dü *  *  *  şen   | 
c2 B2 B4 B2 A2 A4  | A6 e2 e2 d2 =c2 B2  | \
w:  *  *  if *  *  lâh   |  ol *  maz    | 
=cB A2 A8 G4  | B2 A4 B2 A2 G2 F2 A2  | 
w:  *  *  *  Aş ka   |  dü *  *  şen   | 
G2 F2 =c4 B2 A2 A2 G2  | GF GA G2 F2 F4 z4  | |


